!!!!SEGMENT: pl-kk--kk-i-315--006_palestrina-giovanni-pierluigi-da--pulchrae-sunt-genae-tuae.krn
!!!cenid: 16xx:1102
!!!COM: Palestrina, Giovanni Pierluigi da
!!!COM-rismid: pe1904
!!!CDT: ~1525-1594/02/02
!!!CNT: Italian
!!!OTL: Pulchrae sunt genae tuae
!!!PDT:
!!!AGN: Sacred
!!!SMS-siglum: PL-Kk
!!!SMS-shelfmark: Kk.I.315
!!!SMS-shelfwork: 006 W
!!!SMS-variant:
!!!SMS-altvar:
!!!NIFC-rismid: 1001146822
!!!URL-scan: http://repozytorium.nifc.pl/skany/pl-kk-nut--i-315
!!!ONB-nifc: UWAGA: motety w zbiorze: 1. Osculetur me, 2. Trahe me post curremus, 3. Nigra sum sed formosa, 4. Vineam meam, 5. Si ignoras te o pulchra, 6. Pulchrae sunt genae tuae, 7. Fasciculus myrrhae, 8. Ecce tu pulcher es, 9. Tota pulchra es amica mea, 10. Vulnerasti cor meum, 11. Sicut lilium inter spinas, 12. Introduxit me rex, 13. Laeva ejus, 14. Vox dilecti mei
**kern	**text
*I"[Altus]	*
*I'[A]	*
*clefC2	*
*k[b-]	*
*F:	*
*M2/1	*
*met(C|)	*
=1-	=1-
!LO:TX:a:t=P:problem:w źródle znaki przykluczowe b- B-	!
!LO:TX:a:t=P:problem:inicjał P przed kluczem	!
!LO:TX:a:t=6.	!
1.g	Pul-
!LO:TX:a:t=P:problem:all/middle or right	!
2d/	-chre
=2-	=2-
1f,<	sunt
2e/	ge-
!LO:TX:a:t=P:problem:all\middle, right or left	!
!LO:SIC:l:v:s=-nae	!
2f\	-ne
=3-	=3-
2g\	tu-
4f\	.
4e\	.
4d/	.
4c/	.
4d/	.
4e/	.
=4-	=4-
4f\	.
4g\	.
2a\	.
!LO:SIC:l:v:s=-ae	!
2f\	-e
!LO:LB:g=original	!
2.a\	ge-
=5-	=5-
.	.
8g\L	.
8f\J	.
4e/	.
4f\	.
2g\	.
!LO:SIC:l:v:s=-nae	!
2a\	-ne
=6-	=6-
1f	tu-
!LO:SIC:l:v:s=-ae	!
2e,</	-e
1a\	pul-
=7-	=7-
.	.
2a,<\	-chre
1a	sunt
=8-	=8-
2b-\	.
4B-/	ge-
4c/	.
4d/	.
4e/	.
4f\	.
4g\	.
=9-	=9-
4a\	.
4b-\	.
2.cc\	.
!LO:SIC:v:t=custos a	!
4b-\	.
!LO:LB:g=original	!
2.a\	.
=10-	=10-
.	.
4g\	.
1g	.
!LO:SIC:l:v:s=-nae	!
2f\	-ne
=11-	=11-
1e-X	tu-
2d/	.
1c/	.
=12-	=12-
.	.
4B-/	.
4A/	.
!LO:SIC:l:v:s=-ae	!
2B-,</	-e
1b-\	si-
=13-	=13-
.	.
2b-\	-cut
2a\	tur-
2g\	-tu-
=14-	=14-
1f,<	-ris
1a	si-
=15-	=15-
1f	-cut
!LO:LB:g=original	!
2e/ny	tur-
2d/	-tu-
=16-	=16-
2c#X,</	-ris
1e	col-
2f\	-lum
=17-	=17-
1g	tu-
1a	-um
=18-	=18-
2rd	.
2f\	si-
2g,<\	-cut
2a\	mo-
=19-	=19-
2.b-\	-ni-
4b-\	-li-
1a	-a
!LO:LB:g=original	!
=20-	=20-
2r	.
1a	co-
2b-,<\	-lum
=21-	=21-
1cc	tu-
2cc\	.
4b-\	.
4a\	.
=22-	=22-
1g	-um
2rd	.
2f\	si-
=23-	=23-
2g,<\	-cut
2a\	mo-
2b-\	ni-
4a\	.
4g\	-li-
=24-	=24-
2f\	-a
2g\	.
0.a	.
=25-	=25-
.	.
!LO:PB:g=original	!
=26-	=26-
!LO:TX:a:t=4	!
00r	.
=27-	=27-
.	.
=28-	=28-
1e	mo-
2.a\	-re-
4a\	-nu-
=29-	=29-
2g,<\	-las
2.f\	au-
4f\	-re-
2e,</	-as
=30-	=30-
2d/	fa-
2d/	-ci-
2a\	-e-
2.a\	-mus
=31-	=31-
.	.
4g\	.
1f	ti-
4e/	.
4d/	.
=32-	=32-
2e/	.
2f\	.
!LO:LB:g=original	!
1g	.
=33-	=33-
2f#X,<\	-bi
2f#\	ver-
2f#\	-mi-
2f#\	-cu-
=34-	=34-
1g,<	-la-
(>2.b-\	-tas
4a\	.
=35-	=35-
2g,<\)	.
2g\	ar-
4f\ny	-gen-
4e/	.
4d/	.
4c/ny	.
=36-	=36-
2B-/	.
2c/	.
1d	.
!LO:LB:g=original	!
=37-	=37-
1e	-to
1r	.
=38-	=38-
1c	dum
1g	es-
=39-	=39-
4e\	-set
4f\	.
4g\	.
4e\	.
4f\	.
4g\	.
1a\	.
=40-	=40-
.	.
2g\	.
1f	Rex
=41-	=41-
2r	.
2g\	in
2a\	ac-
1b-\	-cu-
=42-	=42-
.	.
2a\	-bi-
2f,<\	-tu
!LO:LB:g=original	!
2.a\	su-
=43-	=43-
.	.
4g\	.
2a\	.
1f	-o
=44-	=44-
2r	.
2g\	in
2a\	ac-
1b-\	-cu-
=45-	=45-
.	.
2B-/	-bi-
4d/	.
4e/	-tu
4f\	.
4g\	.
=46-	=46-
1a,<	.
1a	su-
=47-	=47-
2f,<\	-o
1f	in
2g\	ac-
=48-	=48-
2a\	-cu-
2d/	-bi-
!LO:LB:g=original	!
2e/	-tu
1g\	su-
=49-	=49-
.	.
2f\	.
1g	-o
=50-	=50-
2r	.
2g\	nar-
1a	-dus
=51-	=51-
1cc	me-
2b-,<\	-a
2g\	de-
=52-	=52-
2a\	.
1b-	.
4a\	.
4g\	.
=53-	=53-
2f\	.
2g\	.
2a\	-dit
!LO:LB:g=original	!
1cc\	nar-
=54-	=54-
.	.
2b-\	-dus
2cc\	me-
2f,<\	-a
=55-	=55-
[<2g\	de-
!LO:N:vis=2.	!
2g]	.
4f\	.
4e/	.
4d/	.
=56-	=56-
2c/	.
2d/	.
*lig	*
1e	-dit
=57-	=57-
1f,<	.
*Xlig	*
1b-	o-
=58-	=58-
1a	-do-
1f,<	-rem
=59-	=59-
1f	sv-
2g\	-a-
!LO:LB:g=original	!
2g\	-vi-
=60-	=60-
2a\	-ta-
4g\	.
4f\	.
4e\	.
4f\	.
1g\	.
=61-	=61-
.	.
2f\	.
2g,<\	-tis
2d/	o-
=62-	=62-
1g	-do-
2.f\	.
4g\	.
=63-	=63-
2a\	.
1a	-rem
2g\	sva-
=64-	=64-
2g\	.
2.g\	-vi-
4f#X\	-ta-
2f#\	-tis.
=65-	=65-
!LO:N:vis=00	!
0g	.
==	==
*-	*-
!!!RDF**kern: l = terminal long
!!!RDF**kern: > = above
!!!RDF**kern: < = below
!!!EED: Antoni Szymański
!!!EST: 2021-03-28
!!!ENC: Krzysztof Stępień
!!!END: 2021-03-19
